X:77
T:Hey My Nancy. LIT.077
M:9/8
Q:3/8=115
L:1/8
B:Wm. Litten MS, 1802
Z:Village Music Project 2017 Anne Wride
K:D
d2 B AFA AFA | d2B AFA E3 | d2B AFA AFA | dcB AFA D3 :|
|: fed f/g/af e/f/ge | fed f/g/af e3 | fed f/g/af e/f/ge | dcB AFA D3 :|

